public/images/hashed/43106964ac05b05c1f63ec2b8944a23e.svg

<?xml version="1.0" encoding="UTF-8"?>
<svg width="80px" height="80px" viewBox="0 0 80 80" version="1.1" xmlns="http://www.w3.org/2000/svg" xmlns:xlink="http://www.w3.org/1999/xlink">
    <!-- Generator: Sketch 64 (93537) - https://sketch.com -->
    <title>Icon-Architecture/64/Arch_AWS-VPN_64</title>
    <desc>Created with Sketch.</desc>
    <defs>
        <linearGradient x1="0%" y1="100%" x2="100%" y2="0%" id="linearGradient-1">
            <stop stop-color="#4D27A8" offset="0%"></stop>
            <stop stop-color="#A166FF" offset="100%"></stop>
        </linearGradient>
    </defs>
    <g id="Icon-Architecture/64/Arch_AWS-VPN_64" stroke="none" stroke-width="1" fill="none" fill-rule="evenodd">
        <g id="Icon-Architecture-BG/64/Networking-Content-Delivery" fill="url(#linearGradient-1)">
            <rect id="Rectangle" x="0" y="0" width="80" height="80"></rect>
        </g>
        <path d="M41.5782711,52.7687934 C41.5782711,51.9027934 40.8732711,51.1977934 40.0072711,51.1977934 C39.1402711,51.1977934 38.4352711,51.9027934 38.4352711,52.7687934 C38.4352711,53.6357934 39.1402711,54.3407934 40.0072711,54.3407934 C40.8732711,54.3407934 41.5782711,53.6357934 41.5782711,52.7687934 L41.5782711,52.7687934 Z M43.5782711,52.7687934 C43.5782711,54.3887934 42.4872711,55.7447934 41.0072711,56.1807934 L41.0072711,59.1977934 L39.0072711,59.1977934 L39.0072711,56.1807934 C37.5262711,55.7447934 36.4352711,54.3887934 36.4352711,52.7687934 C36.4352711,50.7997934 38.0382711,49.1977934 40.0072711,49.1977934 C41.9752711,49.1977934 43.5782711,50.7997934 43.5782711,52.7687934 L43.5782711,52.7687934 Z M50.0072711,61.1977934 L50.0072711,57.1977934 L47.0072711,57.1977934 L47.0072711,55.1977934 L50.0072711,55.1977934 L50.0072711,51.1977934 L47.0072711,51.1977934 L47.0072711,49.1977934 L50.0072711,49.1977934 L50.0072711,46.1977934 L30.0072711,46.1977934 L30.0072711,61.1977934 L50.0072711,61.1977934 Z M33.0072711,44.1977934 L47.0072711,44.1977934 L47.0082711,38.1977934 C47.0082711,34.7637934 43.3792711,33.1987934 40.0072711,33.1977934 L40.0032711,33.1977934 C38.1402711,33.1977934 36.3422711,33.6827934 35.0702711,34.5297934 C33.7012711,35.4407934 33.0072711,36.6747934 33.0072711,38.1977934 L33.0072711,44.1977934 Z M52.0072711,45.1977934 L52.0072711,62.1977934 C52.0072711,62.7497934 51.5592711,63.1977934 51.0072711,63.1977934 L29.0072711,63.1977934 C28.4542711,63.1977934 28.0072711,62.7497934 28.0072711,62.1977934 L28.0072711,45.1977934 C28.0072711,44.6447934 28.4542711,44.1977934 29.0072711,44.1977934 L31.0072711,44.1977934 L31.0072711,38.1977934 C31.0072711,36.0267934 32.0572711,34.1327934 33.9622711,32.8647934 C35.5772711,31.7897934 37.7232711,31.1977934 40.0022711,31.1977934 L40.0072711,31.1977934 C44.4792711,31.1987934 49.0082711,33.6037934 49.0082711,38.1977934 L49.0072711,44.1977934 L51.0072711,44.1977934 C51.5592711,44.1977934 52.0072711,44.6447934 52.0072711,45.1977934 L52.0072711,45.1977934 Z M68.0072711,43.1977934 C68.0072711,46.1637934 67.1142711,48.5517934 65.3542711,50.2967934 C62.4882711,53.1397934 58.3562711,53.2027934 58.0022711,53.2027934 L57.9822711,53.2027934 L54.0062711,53.1977934 L54.0082711,51.1977934 L57.9922711,51.2027934 L57.9932711,51.2027934 C58.0612711,51.2027934 61.6362711,51.1797934 63.9572711,48.8657934 C65.3172711,47.5107934 66.0072711,45.6037934 66.0072711,43.1977934 C66.0072711,35.9537934 59.2022711,34.4167934 57.8382711,34.1827934 C57.5712711,34.1377934 57.3342711,33.9857934 57.1822711,33.7617934 C57.0282711,33.5387934 56.9732711,33.2637934 57.0272711,32.9977934 C57.5872711,30.2447934 55.9702711,28.4547934 54.2682711,27.6977934 C52.5822711,26.9487934 50.1562711,26.9697934 48.8112711,28.7907934 C48.5922711,29.0887934 48.2242711,29.2417934 47.8592711,29.1857934 C47.4932711,29.1307934 47.1872711,28.8787934 47.0632711,28.5297934 C46.3832711,26.6017934 45.1512711,24.7617934 43.2992711,22.9037934 C40.3572711,19.9537934 34.6912711,17.4527934 28.3962711,20.1187934 C23.8322711,22.0517934 21.0072711,27.7947934 21.0072711,32.0067934 C21.0072711,32.1917934 21.0012711,32.4237934 20.9932711,32.6737934 C20.9792711,33.1607934 20.9632711,33.7677934 21.0012711,34.0817934 C21.0632711,34.5997934 20.7172711,35.0777934 20.2062711,35.1817934 C20.1952711,35.1837934 20.1852711,35.1847934 20.1762711,35.1867934 C15.9682711,36.2897934 14.0072711,38.8367934 14.0072711,43.1977934 L14.0032711,43.5127934 C14.0002711,43.7287934 13.9952711,43.9757934 14.0052711,44.1337934 C14.3082711,48.9877934 18.8842711,51.1977934 23.0072711,51.1977934 L26.0082711,51.2007934 L26.0062711,53.2007934 L23.0062711,53.1977934 C15.8352711,53.1977934 12.2782711,48.5647934 12.0092711,44.2597934 C11.9962711,44.0627934 11.9992711,43.7537934 12.0042711,43.4817934 L12.0072711,43.1977934 C12.0072711,38.1747934 14.3502711,34.8997934 18.9772711,33.4507934 C18.9782711,33.1747934 18.9862711,32.8877934 18.9942711,32.6177934 C19.0012711,32.3887934 19.0072711,32.1757934 19.0072711,32.0067934 C19.0072711,27.0497934 22.2272711,20.5597934 27.6172711,18.2767934 C33.5512711,15.7637934 40.2632711,17.0247934 44.7152711,21.4917934 C46.3342711,23.1147934 47.5342711,24.7457934 48.3542711,26.4397934 C50.1592711,25.0817934 52.7232711,24.8217934 55.0812711,25.8707934 C57.7982711,27.0787934 59.3112711,29.5797934 59.1212711,32.4097934 C63.4142711,33.4677934 68.0072711,36.8077934 68.0072711,43.1977934 L68.0072711,43.1977934 Z" id="AWS-VPN_Icon_64_Squid" fill="#FFFFFF"></path>
    </g>
</svg>

<svg xmlns="http://www.w3.org/2000/svg" width="80" height="80"><defs><linearGradient id="a" x1="0%" x2="100%" y1="100%" y2="0%"><stop offset="0%" stop-color="#4D27A8"/><stop offset="100%" stop-color="#A166FF"/></linearGradient></defs><g fill="none" fill-rule="evenodd"><path fill="url(#a)" d="M0 0h80v80H0z"/><path fill="#FFF" d="M41.578 52.769c0-.866-.705-1.571-1.57-1.571-.868 0-1.573.705-1.573 1.57 0 .868.705 1.573 1.572 1.573.866 0 1.571-.705 1.571-1.572Zm2 0c0 1.62-1.09 2.976-2.57 3.412v3.017h-2V56.18c-1.482-.436-2.573-1.792-2.573-3.412a3.576 3.576 0 0 1 3.572-3.571 3.576 3.576 0 0 1 3.571 3.57Zm6.43 8.429v-4h-3v-2h3v-4h-3v-2h3v-3h-20v15h20Zm-17-17h14v-6c0-3.434-3.629-5-7-5h-.005c-1.863 0-3.66.485-4.933 1.332-1.369.91-2.063 2.145-2.063 3.668v6Zm19 1v17a1 1 0 0 1-1 1h-22a1 1 0 0 1-1-1v-17a1 1 0 0 1 1-1h2v-6c0-2.171 1.05-4.065 2.954-5.333 1.615-1.075 3.761-1.667 6.04-1.667h.005c4.472 0 9.001 2.406 9.001 7v6h2a1 1 0 0 1 1 1Zm16-2c0 2.966-.894 5.354-2.654 7.099-2.866 2.843-6.998 2.906-7.352 2.906h-.02l-3.976-.005.002-2 3.984.005h.001c.068 0 3.643-.023 5.964-2.337 1.36-1.355 2.05-3.262 2.05-5.668 0-7.244-6.805-8.781-8.169-9.015a.992.992 0 0 1-.656-.421.994.994 0 0 1-.155-.764c.56-2.753-1.057-4.543-2.759-5.3-1.686-.75-4.112-.728-5.457 1.093a1.003 1.003 0 0 1-1.748-.261c-.68-1.928-1.912-3.768-3.764-5.626-2.942-2.95-8.608-5.451-14.903-2.785-4.564 1.933-7.389 7.676-7.389 11.888 0 .185-.006.417-.014.667-.014.487-.03 1.094.008 1.408.062.518-.284.996-.795 1.1l-.03.005c-4.208 1.103-6.169 3.65-6.169 8.01l-.004.316c-.003.216-.008.463.002.62.303 4.855 4.88 7.065 9.002 7.065l3.001.003-.002 2-3-.003c-7.17 0-10.728-4.633-10.997-8.938-.013-.197-.01-.506-.005-.778l.003-.284c0-5.023 2.343-8.298 6.97-9.747.001-.276.01-.563.017-.833.007-.23.013-.442.013-.611 0-4.957 3.22-11.447 8.61-13.73 5.934-2.513 12.646-1.252 17.098 3.215 1.62 1.623 2.82 3.254 3.64 4.948 1.804-1.358 4.368-1.618 6.726-.57 2.717 1.209 4.23 3.71 4.04 6.54 4.293 1.058 8.886 4.398 8.886 10.788Z"/></g></svg>
